X:1
T:Title
%%score { ( 1 4 ) | ( 2 3 ) }
L:1/8
Q:1/4=90
M:6/8
K:D
V:1 treble nm="Grand Piano"
V:4 treble 
V:2 bass 
V:3 bass 
V:1
 D>F[FA] [Fd][Gc][GB] | [FA]3 [DF]3 | [CE]>[DF][EG] [GB]2 [A,EA] | [A,DF]6 | %4
w: Mary~Hubbert~Munford * * * * *||||
 [F,D]>[A,DF][DFA] [Fd][Gc][CGB] | [DFA]3 [A,DF]3 | [^G,DE]>[A,DF][B,D^G] .[EGc]2 [DGB] | A6 | %8
w: ||||
 ABA cBA | [Fd]3 [FA]3 | [DF][DF][DF] Bcd | c6 | [Fd]>[Fc][Fd] [FA]3 | B>^AB d3 | %14
w: ||||||
 A>BA .[A,DF]2[K:bass] [G,CE] | D6 |] %16
w: ||
V:2
 [D,F,]>[D,A,D][D,D] [D,A,][D,B,][D,C] | [D,D]3 [D,A,]3 | z3 .A,3 | D,6 | D,>D,D, [D,A,][D,B,]D, | %5
 D,3 D,3 | E,>E,E, z ^DE, | [A,C]6 | [A,CG][A,DG][A,CG] [A,EG][A,DG][A,CG] | [D,A,]3 [D,A,]3 | %10
 [B,,B,][B,,B,][B,,B,] [F,B,D][F,^A,F][F,B,F] | [F,^A,F]3 [E,=A,]3 | [D,A,]>[D,A,][D,A,] [D,D]3 | %13
 [G,DG]>[G,CG][G,DG] [^G,B,=F]3 | [A,DF]>[A,DG][A,DF][K:bass] z B,A,, | z G,E, F,3 |] %16
V:3
 x6 | x6 | [A,,A,]>[A,,A,][A,,A,] A,,B,,C, | x6 | x6 | x6 | z3 .E,3 | x6 | x6 | x6 | x6 | x6 | x6 | %13
 x6 | z3[K:bass] .A,,3 | D,6 |] %16
V:4
 x6 | x6 | x6 | x6 | x6 | x6 | x6 | x6 | x6 | x6 | x6 | z3 G3 | x6 | x6 | x5[K:bass] x | %15
 F,B,G, A,3 |] %16

